!!!OTL: ES FLIEGT GAR MANCHES VOEGELEIN
!!!ARE: Europa, Mitteleuropa, Deutschland, Thueringen
!!!SCT: E0521
!!!YEM: Copyright 1995, estate of Helmut Schaffrath.
**kern
*ICvox
*Ivox
*M2/4
*k[f#]
*G:
{8d
=1
8.g
16f#
8g
8a
=2
8.b
16a
8g}
{8b
=3
8cc
8b
8a
8g
=4
4a
8r}
{8d
=5
8.g
16f#
8g
8a
=6
8.b
16a
8g}
{8b
=7
8cc
8b
8a
8g
=8
4a
8r}
{8a
=9
8.a
16b
8a
8f#
=10
8d
8e
8d}
{8a
=11
8.a
16b
8a
8f#
=12
4d
8r}
{8d
=13
8g
8g
8a
8a
=14
8.b
16cc
8dd}
{8cc
=15
8b
8b
8a
8a
=16
4g
8r}
==
!!!AGN: Liebes - Lied
!!!ONB: ESAC (Essen Associative Code) Database: ERK1
!!!AMT: simple duple
!!!AIN: vox
!!!EED: Helmut Schaffrath
!!!EEV: 1.0
*-
